svg/N_Arrows/20.svg

<svg xmlns="http://www.w3.org/2000/svg" viewBox="0 0 744.09 1052.36" xmlns:xlink="http://www.w3.org/1999/xlink"><defs><path id="0" d="m360 527.36v5h2v-5h-2z" stroke="#000" fill-rule="evenodd" fill="none" stroke-width=".2"/><path id="1" d="m335.59 544.36l5-5v4.437l-5 .563z" stroke="#000" fill-rule="evenodd" stroke-width=".3"/><path id="2" d="m362.06 527.35v5h2v-5h-2z" stroke="#000" fill-rule="evenodd" stroke-width=".2"/></defs><g transform="translate(-22.22-10.1)"><g stroke="#000"><path transform="matrix(10.18449 0 0 9.0565-3330.16-4361.3)" d="M368.39001 537.05811A8.523162 8.523162 0 1 1 351.34369 537.05811 8.523162 8.523162 0 1 1 368.39001 537.05811z" opacity=".97" fill="none" stroke-width=".999"/><g fill-rule="evenodd"><path d="m335.1 427.89l.631 75.56 82.54-.54c-1.767-36.625-18.04-69.786-83.17-75.02z" stroke-width="2.776"/><path d="m417.77 505.24l-82.54.594.59 77.69c40.01-1.663 76.24-16.984 81.954-78.28z" fill="none" stroke-width="2.815"/><path d="m333.35 583.78l-.636-79.39-83.09.568c1.778 38.485 18.17 73.33 83.73 78.83z" stroke-width="2.855"/><path d="m251.19 502.6l82.36-.573-.589-74.851c-39.923 1.602-76.07 16.364-81.77 75.42z" fill="none" stroke-width="2.76"/></g><path transform="matrix(12.0874 0 0 12.90615-4118.42-6402.15)" d="M369.27388 534.87994A.915451 .915451 0 1 1 367.44298 534.87994 .915451 .915451 0 1 1 369.27388 534.87994z" opacity=".97" stroke-width=".3"/></g><g transform="matrix(-10.14293 0 0 10.88864 4004.46-5373.06)"><use xlink:href="#0"/><path d="m362.06 527.35v5h2v-5h-2z" fill-rule="evenodd" stroke="#000" stroke-width=".2"/></g><g transform="matrix(-10.14293 0 0 14.65636 3791.15-7603.18)"><use xlink:href="#1"/><path d="m345.85 544.39l-5-5v4.39l5 .61z" fill="none" fill-rule="evenodd" stroke="#000" stroke-width=".3"/></g><g transform="matrix(0 9.0569-27.1269 0 14864.63-2774.37)"><use xlink:href="#0"/><use xlink:href="#2"/></g><g transform="matrix(0 9.0569-11.72671 0 6938.43-2584.71)"><use xlink:href="#1"/><path d="m345.85 544.39l-5-5v4.39l5 .61z" fill="none" fill-rule="evenodd" stroke="#000" stroke-width=".3"/></g><g transform="matrix(10.14293 0 0 6.52175-3494.22-2922.2)"><g transform="translate(15.529 8.9)"><use xlink:href="#0"/><use xlink:href="#2"/></g><g transform="matrix(1 0 0-1.34602 36.589 1273.44)"><use xlink:href="#1"/><path d="m345.85 544.39l-5-5v4.39l5 .61z" fill="none" fill-rule="evenodd" stroke="#000" stroke-width=".3" id="3"/></g></g><g transform="matrix(8.2236 0 0 9.0569-2784.75-4281.41)"><g transform="matrix(0-1 1.09199 0-211.79 890.2)"><use xlink:href="#0"/><use xlink:href="#2"/></g><g transform="matrix(0-1 1.34602 0-368.06 868.79)"><use xlink:href="#1"/><use xlink:href="#3"/></g></g><g font-family="Arial Black" font-size="56"><flowRoot transform="translate(307.76 203.42)"><flowRegion><path d="m321.43 270.93h68.57v74.28h-68.57z" id="4"/></flowRegion><flowPara>E</flowPara></flowRoot><flowRoot transform="translate(-10.198-27.09)"><flowRegion><use xlink:href="#4"/></flowRegion><flowPara>N</flowPara></flowRoot></g></g></svg>

<?xml version="1.0" encoding="UTF-8" standalone="no"?>
<!-- Created with Inkscape (http://www.inkscape.org/) -->
<svg
   xmlns:dc="http://purl.org/dc/elements/1.1/"
   xmlns:cc="http://web.resource.org/cc/"
   xmlns:rdf="http://www.w3.org/1999/02/22-rdf-syntax-ns#"
   xmlns:svg="http://www.w3.org/2000/svg"
   xmlns="http://www.w3.org/2000/svg"
   xmlns:sodipodi="http://sodipodi.sourceforge.net/DTD/sodipodi-0.dtd"
   xmlns:inkscape="http://www.inkscape.org/namespaces/inkscape"
   width="744.09448819"
   height="1052.3622047"
   id="svg2"
   sodipodi:version="0.32"
   inkscape:version="0.44.1"
   sodipodi:docbase="F:\Qgis N_arrows"
   sodipodi:docname="rosa43.svg"
   inkscape:export-filename="F:\Qgis N_arrows\rosa43.png"
   inkscape:export-xdpi="300"
   inkscape:export-ydpi="300">
  <defs
     id="defs4" />
  <sodipodi:namedview
     id="base"
     pagecolor="#ffffff"
     bordercolor="#666666"
     borderopacity="1.0"
     inkscape:pageopacity="0.0"
     inkscape:pageshadow="2"
     inkscape:zoom="0.49497475"
     inkscape:cx="369.94903"
     inkscape:cy="525.16178"
     inkscape:document-units="px"
     inkscape:current-layer="layer1"
     showgrid="true"
     inkscape:window-width="1280"
     inkscape:window-height="744"
     inkscape:window-x="-4"
     inkscape:window-y="-4" />
  <metadata
     id="metadata7">
    <rdf:RDF>
      <cc:Work
         rdf:about="">
        <dc:format>image/svg+xml</dc:format>
        <dc:type
           rdf:resource="http://purl.org/dc/dcmitype/StillImage" />
      </cc:Work>
    </rdf:RDF>
  </metadata>
  <g
     inkscape:label="Livello 1"
     inkscape:groupmode="layer"
     id="layer1">
    <rect
       style="fill:white;fill-opacity:1;stroke:black;stroke-width:3.33699989;stroke-miterlimit:4;stroke-dasharray:none;stroke-opacity:1"
       id="rect10945"
       width="2.1465743"
       height="0"
       x="-2192.2886"
       y="679.51837" />
    <g
       id="g7729"
       transform="translate(-22.22336,-10.10153)">
      <path
         transform="matrix(10.18449,0,0,9.056451,-3330.156,-4361.299)"
         d="M 368.39001 537.05811 A 8.5231619 8.5231619 0 1 1  351.34369,537.05811 A 8.5231619 8.5231619 0 1 1  368.39001 537.05811 z"
         sodipodi:ry="8.5231619"
         sodipodi:rx="8.5231619"
         sodipodi:cy="537.05811"
         sodipodi:cx="359.86685"
         id="path1872"
         style="opacity:0.97000002;fill:none;fill-opacity:1;stroke:black;stroke-width:0.99897921;stroke-miterlimit:4;stroke-dasharray:none;stroke-opacity:1"
         sodipodi:type="arc" />
      <path
         sodipodi:nodetypes="cccc"
         id="path1874"
         d="M 335.10103,427.89338 L 335.73243,503.45192 L 418.27103,502.91149 C 416.50453,466.28621 400.22645,433.12527 335.10103,427.89338 z "
         style="fill:black;fill-opacity:1;fill-rule:evenodd;stroke:black;stroke-width:2.77578092;stroke-linecap:butt;stroke-linejoin:miter;stroke-miterlimit:4;stroke-dasharray:none;stroke-opacity:1" />
      <path
         sodipodi:nodetypes="cccc"
         id="path2762"
         d="M 417.76824,505.23558 L 335.22396,505.82989 L 335.81428,583.51589 C 375.8257,581.85332 412.0526,566.53216 417.76824,505.23558 z "
         style="fill:none;fill-rule:evenodd;stroke:black;stroke-width:2.81469011;stroke-linecap:butt;stroke-linejoin:miter;stroke-miterlimit:4;stroke-dasharray:none;stroke-opacity:1" />
      <path
         sodipodi:nodetypes="cccc"
         id="path2764"
         d="M 333.3461,583.78279 L 332.71044,504.38803 L 249.61956,504.9559 C 251.39782,543.44065 267.78484,578.28518 333.3461,583.78279 z "
         style="fill:black;fill-opacity:1;fill-rule:evenodd;stroke:black;stroke-width:2.85488057;stroke-linecap:butt;stroke-linejoin:miter;stroke-miterlimit:4;stroke-dasharray:none;stroke-opacity:1" />
      <path
         sodipodi:nodetypes="cccc"
         id="path2766"
         d="M 251.19384,502.60175 L 333.55494,502.02917 L 332.96594,427.17852 C 293.04327,428.7805 256.89681,443.5424 251.19384,502.60175 z "
         style="fill:none;fill-rule:evenodd;stroke:black;stroke-width:2.75977731;stroke-linecap:butt;stroke-linejoin:miter;stroke-miterlimit:4;stroke-dasharray:none;stroke-opacity:1" />
      <path
         transform="matrix(12.0874,0,0,12.90615,-4118.419,-6402.151)"
         d="M 369.27388 534.87994 A 0.91545075 0.91545075 0 1 1  367.44298,534.87994 A 0.91545075 0.91545075 0 1 1  369.27388 534.87994 z"
         sodipodi:ry="0.91545075"
         sodipodi:rx="0.91545075"
         sodipodi:cy="534.87994"
         sodipodi:cx="368.35843"
         id="path3653"
         style="opacity:0.97000002;fill:black;fill-opacity:1;stroke:black;stroke-width:0.30000001;stroke-miterlimit:4;stroke-dasharray:none;stroke-opacity:1"
         sodipodi:type="arc" />
      <g
         transform="matrix(-10.14293,0,0,10.88864,4004.46,-5373.064)"
         id="g6328">
        <path
           style="fill:none;fill-rule:evenodd;stroke:black;stroke-width:0.2;stroke-linecap:butt;stroke-linejoin:miter;stroke-miterlimit:4;stroke-dasharray:none;stroke-opacity:1"
           d="M 360,527.36218 L 360,532.36218 L 362,532.36218 L 362,527.36218 L 360,527.36218 z "
           id="path6330" />
        <path
           style="fill:black;fill-opacity:1;fill-rule:evenodd;stroke:black;stroke-width:0.2;stroke-linecap:butt;stroke-linejoin:miter;stroke-miterlimit:4;stroke-dasharray:none;stroke-opacity:1"
           d="M 362.05536,527.34679 L 362.05536,532.34679 L 364.05536,532.34679 L 364.05536,527.34679 L 362.05536,527.34679 z "
           id="path6332" />
      </g>
      <g
         transform="matrix(-10.14293,0,0,14.65636,3791.149,-7603.183)"
         id="g7281">
        <path
           sodipodi:nodetypes="cccc"
           style="fill:black;fill-opacity:1;fill-rule:evenodd;stroke:black;stroke-width:0.30000001;stroke-linecap:butt;stroke-linejoin:miter;stroke-miterlimit:4;stroke-dasharray:none;stroke-opacity:1"
           d="M 335.58543,544.35634 L 340.58543,539.35634 L 340.58543,543.79349 L 335.58543,544.35634 z "
           id="path7277" />
        <path
           sodipodi:nodetypes="cccc"
           style="fill:none;fill-opacity:1;fill-rule:evenodd;stroke:black;stroke-width:0.30000001;stroke-linecap:butt;stroke-linejoin:miter;stroke-miterlimit:4;stroke-dasharray:none;stroke-opacity:1"
           d="M 345.85,544.38592 L 340.85,539.38592 L 340.85,543.77616 L 345.85,544.38592 z "
           id="path7279" />
      </g>
      <g
         transform="matrix(0,9.056877,-27.12694,0,14864.63,-2774.368)"
         id="g6384">
        <path
           style="fill:none;fill-rule:evenodd;stroke:black;stroke-width:0.2;stroke-linecap:butt;stroke-linejoin:miter;stroke-miterlimit:4;stroke-dasharray:none;stroke-opacity:1"
           d="M 360,527.36218 L 360,532.36218 L 362,532.36218 L 362,527.36218 L 360,527.36218 z "
           id="path6386" />
        <path
           style="fill:black;fill-opacity:1;fill-rule:evenodd;stroke:black;stroke-width:0.2;stroke-linecap:butt;stroke-linejoin:miter;stroke-miterlimit:4;stroke-dasharray:none;stroke-opacity:1"
           d="M 362.05536,527.34679 L 362.05536,532.34679 L 364.05536,532.34679 L 364.05536,527.34679 L 362.05536,527.34679 z "
           id="path6388" />
      </g>
      <g
         transform="matrix(0,9.056877,-11.72671,0,6938.434,-2584.707)"
         id="g7285">
        <path
           sodipodi:nodetypes="cccc"
           style="fill:black;fill-opacity:1;fill-rule:evenodd;stroke:black;stroke-width:0.30000001;stroke-linecap:butt;stroke-linejoin:miter;stroke-miterlimit:4;stroke-dasharray:none;stroke-opacity:1"
           d="M 335.58543,544.35634 L 340.58543,539.35634 L 340.58543,543.79349 L 335.58543,544.35634 z "
           id="path7287" />
        <path
           sodipodi:nodetypes="cccc"
           style="fill:none;fill-opacity:1;fill-rule:evenodd;stroke:black;stroke-width:0.30000001;stroke-linecap:butt;stroke-linejoin:miter;stroke-miterlimit:4;stroke-dasharray:none;stroke-opacity:1"
           d="M 345.85,544.38592 L 340.85,539.38592 L 340.85,543.77616 L 345.85,544.38592 z "
           id="path7289" />
      </g>
      <g
         transform="matrix(10.14293,0,0,6.521748,-3494.221,-2922.204)"
         id="g7319">
        <g
           id="g6324"
           transform="translate(15.52897,8.900003)">
          <path
             id="path5435"
             d="M 360,527.36218 L 360,532.36218 L 362,532.36218 L 362,527.36218 L 360,527.36218 z "
             style="fill:none;fill-rule:evenodd;stroke:black;stroke-width:0.2;stroke-linecap:butt;stroke-linejoin:miter;stroke-miterlimit:4;stroke-dasharray:none;stroke-opacity:1" />
          <path
             id="path6322"
             d="M 362.05536,527.34679 L 362.05536,532.34679 L 364.05536,532.34679 L 364.05536,527.34679 L 362.05536,527.34679 z "
             style="fill:black;fill-opacity:1;fill-rule:evenodd;stroke:black;stroke-width:0.2;stroke-linecap:butt;stroke-linejoin:miter;stroke-miterlimit:4;stroke-dasharray:none;stroke-opacity:1" />
        </g>
        <g
           id="g7291"
           transform="matrix(1,0,0,-1.346023,36.5886,1273.442)">
          <path
             id="path7293"
             d="M 335.58543,544.35634 L 340.58543,539.35634 L 340.58543,543.79349 L 335.58543,544.35634 z "
             style="fill:black;fill-opacity:1;fill-rule:evenodd;stroke:black;stroke-width:0.30000001;stroke-linecap:butt;stroke-linejoin:miter;stroke-miterlimit:4;stroke-dasharray:none;stroke-opacity:1"
             sodipodi:nodetypes="cccc" />
          <path
             id="path7295"
             d="M 345.85,544.38592 L 340.85,539.38592 L 340.85,543.77616 L 345.85,544.38592 z "
             style="fill:none;fill-opacity:1;fill-rule:evenodd;stroke:black;stroke-width:0.30000001;stroke-linecap:butt;stroke-linejoin:miter;stroke-miterlimit:4;stroke-dasharray:none;stroke-opacity:1"
             sodipodi:nodetypes="cccc" />
        </g>
      </g>
      <g
         transform="matrix(8.223604,0,0,9.056877,-2784.747,-4281.406)"
         id="g7311">
        <g
           id="g6378"
           transform="matrix(0,-1,1.091992,0,-211.7912,890.2011)">
          <path
             id="path6380"
             d="M 360,527.36218 L 360,532.36218 L 362,532.36218 L 362,527.36218 L 360,527.36218 z "
             style="fill:none;fill-rule:evenodd;stroke:black;stroke-width:0.2;stroke-linecap:butt;stroke-linejoin:miter;stroke-miterlimit:4;stroke-dasharray:none;stroke-opacity:1" />
          <path
             id="path6382"
             d="M 362.05536,527.34679 L 362.05536,532.34679 L 364.05536,532.34679 L 364.05536,527.34679 L 362.05536,527.34679 z "
             style="fill:black;fill-opacity:1;fill-rule:evenodd;stroke:black;stroke-width:0.2;stroke-linecap:butt;stroke-linejoin:miter;stroke-miterlimit:4;stroke-dasharray:none;stroke-opacity:1" />
        </g>
        <g
           id="g7297"
           transform="matrix(0,-1,1.346023,0,-368.0639,868.7946)">
          <path
             id="path7299"
             d="M 335.58543,544.35634 L 340.58543,539.35634 L 340.58543,543.79349 L 335.58543,544.35634 z "
             style="fill:black;fill-opacity:1;fill-rule:evenodd;stroke:black;stroke-width:0.30000001;stroke-linecap:butt;stroke-linejoin:miter;stroke-miterlimit:4;stroke-dasharray:none;stroke-opacity:1"
             sodipodi:nodetypes="cccc" />
          <path
             id="path7301"
             d="M 345.85,544.38592 L 340.85,539.38592 L 340.85,543.77616 L 345.85,544.38592 z "
             style="fill:none;fill-opacity:1;fill-rule:evenodd;stroke:black;stroke-width:0.30000001;stroke-linecap:butt;stroke-linejoin:miter;stroke-miterlimit:4;stroke-dasharray:none;stroke-opacity:1"
             sodipodi:nodetypes="cccc" />
        </g>
      </g>
      <flowRoot
         transform="translate(307.7558,203.4215)"
         style="font-size:56px;font-family:Arial Black"
         id="flowRoot2798"
         xml:space="preserve"><flowRegion
           id="flowRegion2800"><rect
             style="font-size:56px;font-family:Arial Black"
             y="270.93362"
             x="321.42856"
             height="74.285713"
             width="68.571426"
             id="rect2802" /></flowRegion><flowPara
           id="flowPara2804">E</flowPara></flowRoot>      <flowRoot
         transform="translate(-10.19842,-27.08559)"
         style="font-size:56px;font-family:Arial Black"
         id="flowRoot2790"
         xml:space="preserve"><flowRegion
           id="flowRegion2792"><rect
             style="font-size:56px;font-family:Arial Black"
             y="270.93362"
             x="321.42856"
             height="74.285713"
             width="68.571426"
             id="rect2794" /></flowRegion><flowPara
           id="flowPara2796">N</flowPara></flowRoot>    </g>
  </g>
</svg>
